my-site/themes/moving-test/assets/images/loc-icon.svg

<svg width="17" height="20" viewBox="0 0 17 20" fill="none" xmlns="http://www.w3.org/2000/svg">
<path d="M15.8853 11.9441L15.4606 12.6874C14.9326 13.6114 14.2605 14.445 13.4694 15.1569L8.43649 19.6864L3.40355 15.1569C2.6126 14.445 1.94042 13.6114 1.41246 12.6874L0.987697 11.9441C0.160644 10.4967 -0.160404 8.81498 0.0753583 7.16472C0.245202 5.97577 0.698248 4.84503 1.39633 3.86773L1.67272 3.48076C2.82092 1.87328 4.50408 0.727287 6.42053 0.248174C7.74414 -0.0827247 9.12885 -0.0827247 10.4525 0.248174C12.3689 0.727287 14.0521 1.87328 15.2002 3.48076L15.4767 3.86773C16.1748 4.84503 16.6278 5.97577 16.7977 7.16472C17.0334 8.81498 16.7124 10.4967 15.8853 11.9441ZM8.43649 13.123C11.0063 13.123 13.0895 11.0397 13.0895 8.4699C13.0895 5.90008 11.0063 3.81682 8.43649 3.81682C5.86667 3.81682 3.7834 5.90008 3.7834 8.4699C3.7834 11.0397 5.86667 13.123 8.43649 13.123Z" fill="white"/>
</svg>

<svg xmlns="http://www.w3.org/2000/svg" width="17" height="20" fill="none" viewBox="0 0 17 20"><path fill="#fff" d="m15.885 11.944-.424.743a10 10 0 0 1-1.992 2.47l-5.033 4.53-5.032-4.53a10 10 0 0 1-1.992-2.47l-.424-.743a7.5 7.5 0 0 1 .408-8.076l.277-.387a8.312 8.312 0 0 1 13.527 0l.277.387a7.5 7.5 0 0 1 .408 8.076m-7.449 1.179a4.653 4.653 0 1 0 0-9.306 4.653 4.653 0 0 0 0 9.306"/></svg>
